build/assets/images/content/treat.svg

<svg width="48" height="48" viewBox="0 0 48 48" fill="none" xmlns="http://www.w3.org/2000/svg">
<path d="M30.2131 26.8182C30.2131 30.2323 27.5268 33 24.2131 33C20.8994 33 18.2131 30.2323 18.2131 26.8182C18.2131 21.4091 24.2131 15 24.2131 15C24.2131 15 30.2131 21.4091 30.2131 26.8182Z" fill="#333333"/>
<path fill-rule="evenodd" clip-rule="evenodd" d="M34.1127 14.1005C28.6454 8.63316 19.7811 8.63316 14.3137 14.1005L12.8995 12.6863C19.1479 6.4379 29.2785 6.4379 35.5269 12.6863C38.638 15.7974 40.2003 19.8731 40.2131 23.9494V23.9526V27.5855L43.5061 24.2926L44.9203 25.7068L39.9203 30.7068L39.2132 31.4139L38.5061 30.7068L33.5061 25.7068L34.9203 24.2926L38.2131 27.5854V23.9557V23.9541C38.2015 20.385 36.8349 16.8227 34.1127 14.1005ZM14.3137 33.8995C19.7811 39.3668 28.6454 39.3668 34.1127 33.8995L35.5269 35.3137C29.2785 41.5621 19.1479 41.5621 12.8995 35.3137C9.77633 32.1905 8.21403 28.0954 8.21321 24.0032V24.003V20.4139L4.92032 23.7068L3.5061 22.2926L8.5061 17.2926L9.21321 16.5855L9.92032 17.2926L14.9203 22.2926L13.5061 23.7068L10.2132 20.4139V24.0028V24.003C10.214 27.5865 11.5806 31.1664 14.3137 33.8995Z" fill="#333333"/>
</svg>

<svg width="48" height="48" fill="none" xmlns="http://www.w3.org/2000/svg"><path d="M30.213 26.818c0 3.414-2.686 6.182-6 6.182s-6-2.768-6-6.182c0-5.409 6-11.818 6-11.818s6 6.41 6 11.818z" fill="#333"/><path fill-rule="evenodd" clip-rule="evenodd" d="M34.113 14.1c-5.468-5.467-14.332-5.467-19.8 0L12.9 12.687c6.249-6.248 16.38-6.248 22.628 0a15.953 15.953 0 014.686 11.263v3.637l3.293-3.293 1.414 1.414-5 5-.707.707-.707-.707-5-5 1.414-1.414 3.293 3.292v-3.63a13.952 13.952 0 00-4.1-9.854zm-19.8 19.8c5.468 5.467 14.332 5.467 19.8 0l1.414 1.414c-6.248 6.248-16.38 6.248-22.628 0a15.953 15.953 0 01-4.686-11.31v-3.592L4.92 23.708l-1.414-1.414 5-5 .707-.707.707.707 5 5-1.414 1.414-3.293-3.293v3.589a13.96 13.96 0 004.1 9.897z" fill="#333"/></svg>
